X: 1
T: The Mist-Covered Mountain
T: Waltz or Jig
R: waltz, Jig
Z: John Chambers <jc@trillian.mit.edu>
D: De Danaan ________
M: 3/4
L: 1/8
K: ADor
AG \
|: "Am"E>AA ABd | e>AA AGE | "G"G2G GAB | dBA GED |
|  "Am"E>AA ABd | e>AA "G"B^cd | "C"e>fg "G"dBG | "Em"BAG "Am"A3 :|
a \
[| "Am"a>ge a2b | age edB | AGE "G"G2A | BAB deg |
|  "Am"a>ge a2b | age edB | AGE "G"G2A | BAG "Am"A2a |
|  "Am"a>ge a2b | age edB | AGE "G"G2A | BAB GED |
|  "G"EDE G2A | BAG B^cd | "C"efg "G"dBG | "Em"BAG "Am"A3 |]
